projects/front-end-library/src/lib/components/logo/svg/logo-videotron-business-small-en.svg

<svg width="109" height="24" viewBox="0 0 109 24" fill="none" xmlns="http://www.w3.org/2000/svg">
    <path d="M24 0H0V24H24V0Z" class="fill-brand"/>
    <path d="M6.48319 6.15918L18.0934 11.9325L6.46924 17.8399L13.9459 11.9503L6.48319 6.15918Z" fill="#050504"/>
    <path d="M34.2331 8.7694L32.159 2.24463H30.5802L33.3577 10.6715H35.0891L37.8791 2.24463H36.317L34.2331 8.7694Z" fill="currentColor"/>
    <path d="M57.3522 9.26191H53.53V7.19613H57.0817V5.78102H53.53V3.65419H57.3522V2.24463H52.0497V10.6715H57.3522V9.26191Z" fill="currentColor"/>
    <path d="M48.4675 10.419C48.8671 10.1498 49.22 9.8171 49.5122 9.43395C49.6619 9.19303 49.7358 8.9127 49.7244 8.62928V4.31874C49.7387 4.03345 49.6603 3.7512 49.5011 3.51407C49.3304 3.27267 48.7963 2.66777 48.4841 2.48742C48.2237 2.33008 47.9255 2.24619 47.6212 2.24463H43.7629V10.6729H47.6212C47.92 10.6597 48.2108 10.5725 48.4675 10.419ZM45.2433 9.26191V3.65419H47.4811C47.5245 3.6512 47.5681 3.65542 47.6101 3.66668C47.8634 3.82295 48.0767 4.03627 48.233 4.2896C48.2402 4.3125 48.244 4.33635 48.2441 4.36036V8.60153C48.2441 8.76524 47.821 9.13566 47.6212 9.24665C47.591 9.2552 47.5596 9.25894 47.5282 9.25775L45.2433 9.26191Z" fill="currentColor"/>
    <path d="M41.1687 2.24463H39.6884V10.677H41.1687V2.24463Z" fill="currentColor"/>
    <path d="M96.48 2.24463V7.91201L93.5846 2.24463H91.9933V10.6715H93.4722V5.07624L96.3912 10.6715H97.9589V2.24463H96.48Z" fill="currentColor"/>
    <path d="M81.6283 10.6728L79.9538 7.23767C80.0849 7.18962 80.208 7.12178 80.3186 7.0365C80.6002 6.81765 80.8562 6.56773 81.0817 6.29149C81.2511 6.03588 81.3396 5.73517 81.3356 5.42855V4.18963C81.337 3.88424 81.2487 3.58514 81.0817 3.32947C80.8579 3.04296 80.6019 2.7832 80.3186 2.55532C80.0238 2.35483 79.6762 2.2462 79.3197 2.24316H75.3574V10.6728H76.8364V7.35282H78.4568L80.0245 10.6825L81.6283 10.6728ZM79.8553 5.41745C79.854 5.43804 79.8478 5.45802 79.8372 5.47572C79.7262 5.66856 79.4446 5.9391 79.3197 5.9391H76.8364V3.65411H79.3905C79.5292 3.6666 79.7554 3.94823 79.8372 4.10639C79.85 4.13617 79.8561 4.16835 79.8553 4.20073V5.41745Z" fill="currentColor"/>
    <path d="M88.5138 2.44017C88.2493 2.28122 87.9482 2.19373 87.6397 2.18628H85.4921C85.1835 2.19277 84.8821 2.28033 84.6181 2.44017C84.3239 2.60943 83.7593 3.21432 83.59 3.45572C83.4355 3.695 83.3576 3.9757 83.3667 4.26039V8.67636C83.3588 8.95874 83.4366 9.23689 83.59 9.4741C83.7593 9.7155 84.3239 10.3259 84.6181 10.4896C84.8817 10.6508 85.1832 10.7398 85.4921 10.7477H87.6356C87.9443 10.7388 88.2455 10.6499 88.5096 10.4896C88.8037 10.3259 89.3559 9.7155 89.5376 9.4741C89.691 9.23683 89.7694 8.95882 89.7624 8.67636V4.26039C89.7689 3.97503 89.6886 3.69444 89.5321 3.45572C89.3559 3.21432 88.8037 2.60943 88.5138 2.44017ZM88.2918 8.65833C88.2908 8.67897 88.2846 8.69901 88.2738 8.7166C88.1087 8.95547 87.8996 9.16075 87.6578 9.32149C87.6349 9.32871 87.611 9.33245 87.587 9.33259H85.5504C85.5263 9.33358 85.5022 9.32981 85.4796 9.32149C85.2347 9.16269 85.0235 8.95713 84.8581 8.7166C84.8498 8.69831 84.8455 8.67843 84.8456 8.65833V4.30062C84.8458 4.27651 84.8501 4.2526 84.8581 4.22987C85.0236 3.98641 85.2347 3.77725 85.4796 3.61388C85.4921 3.59723 85.5504 3.59723 85.5504 3.59723H87.5828C87.6075 3.59639 87.6319 3.60214 87.6536 3.61388C87.8954 3.77918 88.1043 3.98807 88.2696 4.22987C88.2876 4.2479 88.2876 4.30062 88.2876 4.30062L88.2918 8.65833Z" fill="currentColor"/>
    <path d="M73.3541 2.24463H67.3052V3.65419H69.5902V10.6784H71.0691V3.65419H73.3541V2.24463Z" fill="currentColor"/>
    <path d="M65.7152 9.4741C65.8651 9.23539 65.9422 8.95819 65.9372 8.67636V4.26039C65.9434 3.97624 65.8662 3.69651 65.7152 3.45572C65.5321 3.21432 64.9799 2.60943 64.6802 2.44017C64.4194 2.28351 64.1228 2.19611 63.8187 2.18628H61.6683C61.3592 2.1922 61.0571 2.27979 60.7928 2.44017C60.4946 2.60943 59.9299 3.21432 59.7662 3.45572C59.6097 3.69444 59.5294 3.97503 59.5359 4.26039V8.67636C59.5306 8.9594 59.6108 9.23745 59.7662 9.4741C59.9299 9.7155 60.4946 10.3259 60.7928 10.4896C61.0568 10.6514 61.3588 10.7405 61.6683 10.7477H63.8187C64.1255 10.7376 64.4246 10.6487 64.6872 10.4896C64.9799 10.3259 65.5321 9.71134 65.7152 9.4741ZM64.4569 8.65833C64.4563 8.67822 64.4526 8.6979 64.4458 8.7166C64.2772 8.95638 64.0644 9.1617 63.8187 9.32149C63.7958 9.32863 63.7719 9.33237 63.7479 9.33259H61.721C61.6974 9.3331 61.6739 9.32934 61.6516 9.32149C61.4073 9.16283 61.197 8.95722 61.0329 8.7166C61.0217 8.69922 61.0159 8.67896 61.0162 8.65833V4.30062C61.0166 4.27611 61.0223 4.25198 61.0329 4.22987C61.1971 3.98629 61.4073 3.77706 61.6516 3.61388C61.6683 3.59723 61.721 3.59723 61.721 3.59723H63.7535C63.7781 3.59639 63.8025 3.60214 63.8242 3.61388C64.068 3.77864 64.2788 3.98756 64.4458 4.22987C64.4536 4.2526 64.4574 4.27656 64.4569 4.30062V8.65833Z" fill="currentColor"/>
    <path d="M35.9992 13.5807C35.7492 13.4024 35.4503 13.3055 35.1432 13.3032H31.3293V21.7759H35.1432C35.4496 21.7759 35.7485 21.6814 35.9992 21.5053C36.2606 21.2804 36.4977 21.0289 36.7068 20.7548C36.8455 20.5383 36.9152 20.2847 36.9066 20.0278V18.8263C36.9153 18.5602 36.8458 18.2973 36.7068 18.0702C36.544 17.8625 36.3644 17.6685 36.1699 17.4903C36.3644 17.312 36.544 17.1181 36.7068 16.9104C36.8458 16.6833 36.9153 16.4204 36.9066 16.1543V15.0721C36.9153 14.8064 36.8459 14.544 36.7068 14.3174C36.4972 14.0479 36.26 13.801 35.9992 13.5807ZM32.1867 17.9037H35.1474C35.2215 17.901 35.2953 17.9142 35.3638 17.9426C35.6316 18.1154 35.8549 18.3487 36.0159 18.6238C36.0451 18.692 36.0589 18.766 36.0561 18.8402V19.9931C36.0587 20.0667 36.0455 20.1401 36.0173 20.2081C35.8557 20.4836 35.6313 20.717 35.3624 20.8893C35.2926 20.9281 35.2133 20.9469 35.1335 20.9434H32.1867V17.9037ZM35.3638 17.038C35.2964 17.0715 35.2226 17.09 35.1474 17.0921H32.1867V14.1218H35.1335C35.2138 14.1186 35.2934 14.1373 35.3638 14.1759C35.6313 14.3543 35.8543 14.5916 36.0159 14.8696C36.0451 14.9378 36.0589 15.0118 36.0561 15.086V16.1265C36.0585 16.2051 36.0453 16.2834 36.0173 16.3568C35.8542 16.6321 35.629 16.8654 35.3596 17.038H35.3638Z" fill="currentColor"/>
    <path d="M43.7254 19.9224C43.7217 19.9838 43.7031 20.0433 43.6713 20.0959C43.4538 20.4467 43.1632 20.7467 42.8195 20.9754C42.7666 21.0035 42.7072 21.0169 42.6475 21.0143H40.9049C40.8441 21.0166 40.7838 21.0028 40.7301 20.9741C40.3791 20.7465 40.0803 20.4472 39.8533 20.0959C39.8215 20.0433 39.803 19.9838 39.7992 19.9224V13.2964H38.946V19.9557C38.9408 20.1973 39.0053 20.4353 39.1319 20.6411C39.4047 21.0088 39.7284 21.3358 40.0933 21.6122C40.317 21.7497 40.5719 21.828 40.8342 21.8398H42.7182C42.976 21.8275 43.2264 21.7491 43.4452 21.6122C43.8102 21.3354 44.1344 21.0085 44.408 20.6411V20.6411C44.5297 20.4338 44.5889 20.1958 44.5787 19.9557V13.2964H43.7254V19.9224Z" fill="currentColor"/>
    <path d="M51.7305 17.6539L47.8931 16.5857C47.7689 16.539 47.6622 16.4549 47.5876 16.3451C47.5131 16.2353 47.4744 16.1051 47.4769 15.9725V15.0859C47.4804 15.025 47.499 14.9659 47.531 14.9139C47.7536 14.5815 48.0492 14.3043 48.3953 14.1037C48.4483 14.0759 48.5076 14.0625 48.5674 14.0648H50.5499C50.6103 14.0622 50.6702 14.0762 50.7233 14.1051C51.0709 14.3297 51.3623 14.6311 51.5752 14.986C51.6131 15.0422 51.6452 15.1022 51.6709 15.165L51.6778 15.1803L52.5311 14.9305L52.5227 14.9097C52.4325 14.7145 52.3233 14.5287 52.1967 14.3548C52.033 14.1342 51.6418 13.6611 51.3199 13.4641C51.101 13.3274 50.8507 13.2491 50.5929 13.2366H48.498C48.2402 13.2489 47.9898 13.3272 47.771 13.4641C47.4019 13.7465 47.0749 14.0801 46.7999 14.4547C46.6787 14.6652 46.6191 14.9056 46.6278 15.1484V16.0196C46.6278 16.662 46.9927 17.2128 47.5144 17.3598L51.3657 18.4142C51.6348 18.485 51.8013 18.8027 51.8013 19.0566V19.9556C51.8023 20.0156 51.789 20.0751 51.7625 20.129C51.5341 20.4678 51.2338 20.7521 50.8829 20.9614C50.8349 20.9891 50.78 21.0025 50.7247 21.0003H48.4786C48.4133 21.0027 48.3485 20.9889 48.2899 20.96C47.9467 20.7321 47.6571 20.4325 47.4408 20.0818V20.0818C47.4002 20.0333 47.3679 19.9785 47.3451 19.9195V19.9042L46.5057 20.1387L46.5141 20.1595C46.5998 20.3542 46.7044 20.5401 46.8262 20.7145C46.9885 20.9351 47.3812 21.4081 47.703 21.6051C47.9267 21.7426 48.1816 21.8209 48.4439 21.8327H50.7774C51.0353 21.8206 51.2857 21.7422 51.5044 21.6051C51.8728 21.3294 52.1998 21.0023 52.4756 20.634V20.634C52.5967 20.4234 52.6563 20.1831 52.6476 19.9403V18.9844C52.6448 18.3518 52.2688 17.8065 51.7305 17.6539Z" fill="currentColor"/>
    <path d="M55.4557 13.2964H54.6011V21.7704H55.4557V13.2964Z" fill="currentColor"/>
    <path d="M62.3189 20.501L58.7146 13.3061L58.709 13.2964H57.595V21.769H58.4205V14.6324L62.054 21.7593L62.0595 21.769H63.1444V13.2964H62.3189V20.501Z" fill="currentColor"/>
    <path d="M65.2963 21.769H70.1701V20.9435H66.1495V17.9454H69.9592V17.12H66.1495V14.1219H70.1701V13.2964H65.2963V21.769Z" fill="currentColor"/>
    <path d="M77.1526 17.6538L73.3152 16.5856C73.1911 16.5387 73.0845 16.4546 73.01 16.3449C72.9355 16.2351 72.8967 16.105 72.899 15.9724V15.0858C72.9025 15.0249 72.9211 14.9658 72.9531 14.9138C73.1758 14.581 73.472 14.3038 73.8188 14.1036C73.8717 14.0755 73.931 14.0621 73.9908 14.0647H75.972C76.0328 14.0622 76.0932 14.0761 76.1468 14.105C76.4938 14.3292 76.7851 14.6295 76.9986 14.9832C77.0366 15.0394 77.0687 15.0994 77.0944 15.1621L77.1013 15.1774L77.9337 14.9332H77.9545L77.9462 14.9124C77.8554 14.7175 77.7462 14.5317 77.6202 14.3575C77.4579 14.1369 77.0652 13.6638 76.7434 13.4668C76.5245 13.3299 76.2742 13.2516 76.0164 13.2393H73.9215C73.6636 13.2516 73.4133 13.3299 73.1945 13.4668C72.8257 13.7496 72.4988 14.0831 72.2233 14.4574C72.1026 14.6681 72.0435 14.9084 72.0527 15.151V16.0223C72.0527 16.6647 72.4162 17.2154 72.9378 17.3625L76.7905 18.4169C77.0583 18.4877 77.2248 18.8054 77.2248 19.0592V19.9583C77.2258 20.0183 77.2124 20.0778 77.1859 20.1317C76.9578 20.4707 76.6574 20.755 76.3063 20.9641C76.2584 20.9919 76.2035 21.0054 76.1482 21.0029H73.9006C73.8354 21.0051 73.7706 20.9913 73.712 20.9627C73.3691 20.7344 73.0795 20.4348 72.8629 20.0845C72.8232 20.0357 72.7913 19.9809 72.7686 19.9222V19.9069L71.9292 20.1414L71.9389 20.1622C72.0246 20.3567 72.1286 20.5425 72.2497 20.7171C72.4134 20.9377 72.8046 21.4108 73.1265 21.6078C73.3502 21.7453 73.6051 21.8235 73.8673 21.8354H76.2023C76.4601 21.8229 76.7104 21.7445 76.9293 21.6078C77.2974 21.3318 77.6244 21.0048 77.9004 20.6367V20.6367C78.0216 20.4261 78.0812 20.1858 78.0725 19.943V18.9871C78.0669 18.3517 77.6923 17.8065 77.1526 17.6538Z" fill="currentColor"/>
    <path d="M85.123 17.6538L81.2842 16.5856C81.16 16.5389 81.0533 16.4549 80.9787 16.345C80.9042 16.2352 80.8655 16.105 80.868 15.9724V15.0858C80.871 15.025 80.8892 14.9659 80.9207 14.9138C81.1438 14.5813 81.4399 14.3042 81.7864 14.1036C81.8393 14.0757 81.8987 14.0623 81.9584 14.0647H83.9354C83.9958 14.0624 84.0557 14.0763 84.1089 14.105C84.4563 14.3291 84.7481 14.6294 84.9621 14.9832C85.0001 15.0394 85.0322 15.0994 85.0578 15.1621V15.1774L85.8902 14.9332H85.911L85.9027 14.9124C85.8124 14.7172 85.7032 14.5314 85.5767 14.3575C85.4144 14.1369 85.0217 13.6638 84.6999 13.4668C84.481 13.3299 84.2307 13.2516 83.9729 13.2393H81.878C81.6235 13.2534 81.3768 13.3317 81.1607 13.4668C80.7919 13.7495 80.4649 14.083 80.1896 14.4574C80.0684 14.6679 80.0088 14.9083 80.0175 15.151V16.0223C80.0175 16.6647 80.381 17.2154 80.9027 17.3625L84.7554 18.4169C85.0245 18.4877 85.191 18.8054 85.191 19.0592V19.9583C85.1922 20.0185 85.1784 20.0781 85.1508 20.1317C84.9227 20.4707 84.6223 20.755 84.2712 20.9641C84.2233 20.9919 84.1684 21.0054 84.113 21.0029H81.8697C81.8049 21.0053 81.7405 20.9914 81.6824 20.9627C81.3388 20.7348 81.0486 20.4352 80.8319 20.0845V20.0845C80.7928 20.0352 80.7611 19.9805 80.7376 19.9222V19.9069L79.9052 20.1414L79.9135 20.1622C79.9997 20.3564 80.1037 20.5422 80.2242 20.7171C80.388 20.9377 80.7792 21.4108 81.1011 21.6078C81.3252 21.7453 81.5806 21.8235 81.8433 21.8354H84.1768C84.4347 21.823 84.685 21.7447 84.9038 21.6078C85.2722 21.3321 85.5992 21.005 85.875 20.6367V20.6367C85.9957 20.426 86.0548 20.1856 86.0456 19.943V18.9871C86.0359 18.3517 85.6613 17.8065 85.123 17.6538Z" fill="currentColor"/>
</svg>

<svg width="109" height="24" fill="none" xmlns="http://www.w3.org/2000/svg"><path d="M24 0H0v24h24V0Z" class="fill-brand"/><path d="m6.483 6.16 11.61 5.772L6.47 17.84l7.477-5.89-7.463-5.79Z" fill="#050504"/><path d="M34.233 8.77 32.16 2.244H30.58l2.778 8.427h1.731l2.79-8.427h-1.562l-2.084 6.524ZM57.352 9.262H53.53V7.196h3.552V5.781H53.53V3.654h3.822v-1.41H52.05v8.428h5.302v-1.41ZM48.468 10.419c.4-.27.752-.602 1.044-.985.15-.241.224-.521.212-.805V4.32a1.325 1.325 0 0 0-.223-.805c-.17-.241-.705-.846-1.017-1.027a1.685 1.685 0 0 0-.863-.242h-3.858v8.428h3.858c.299-.013.59-.1.846-.254Zm-3.225-1.157V3.654h2.238a.394.394 0 0 1 .13.013c.252.156.466.37.622.623a.24.24 0 0 1 .011.07v4.242c0 .163-.423.534-.623.645a.3.3 0 0 1-.093.01l-2.285.005ZM41.169 2.245h-1.48v8.432h1.48V2.245ZM96.48 2.245v5.667l-2.895-5.667h-1.592v8.427h1.48V5.076l2.918 5.596h1.568V2.245H96.48ZM81.628 10.673l-1.674-3.435a1.37 1.37 0 0 0 .365-.202c.281-.218.537-.468.763-.745.17-.255.258-.556.254-.862v-1.24a1.56 1.56 0 0 0-.254-.86 4.73 4.73 0 0 0-.763-.774c-.295-.2-.643-.309-1-.312h-3.962v8.43h1.48v-3.32h1.62l1.568 3.33 1.603-.01Zm-1.773-5.256a.13.13 0 0 1-.018.059c-.11.193-.392.463-.517.463h-2.484V3.654h2.555c.138.013.364.294.446.452.013.03.02.062.018.095v1.216ZM88.514 2.44a1.78 1.78 0 0 0-.874-.254h-2.148c-.309.007-.61.094-.874.254-.294.17-.859.774-1.028 1.016a1.4 1.4 0 0 0-.223.804v4.416c-.008.283.07.56.223.798.17.242.734.852 1.028 1.016.264.16.565.25.874.258h2.144c.308-.01.61-.098.874-.258.294-.164.846-.774 1.028-1.016.153-.237.231-.515.224-.798V4.26a1.41 1.41 0 0 0-.23-.804c-.176-.242-.728-.847-1.018-1.016Zm-.222 6.218a.123.123 0 0 1-.018.059 2.29 2.29 0 0 1-.616.604.24.24 0 0 1-.071.012H85.55a.183.183 0 0 1-.07-.012 2.22 2.22 0 0 1-.622-.604.14.14 0 0 1-.012-.059V4.301c0-.024.004-.048.012-.071.166-.244.377-.453.622-.616.012-.017.07-.017.07-.017h2.033c.025 0 .049.005.07.017.242.165.451.374.617.616.018.018.018.07.018.07l.004 4.358ZM73.354 2.245h-6.049v1.41h2.285v7.023h1.48V3.654h2.284v-1.41ZM65.715 9.474c.15-.239.227-.516.222-.798V4.26a1.455 1.455 0 0 0-.222-.804c-.183-.242-.735-.847-1.035-1.016a1.785 1.785 0 0 0-.861-.254h-2.15c-.31.006-.612.094-.876.254-.298.17-.863.774-1.027 1.016a1.41 1.41 0 0 0-.23.804v4.416c-.005.283.075.561.23.798.164.242.729.852 1.027 1.016.264.161.566.25.875.258h2.15a1.79 1.79 0 0 0 .87-.258c.292-.164.844-.779 1.027-1.016Zm-1.258-.816c0 .02-.004.04-.011.059-.169.24-.382.445-.627.604a.246.246 0 0 1-.071.012H61.72a.196.196 0 0 1-.07-.012 2.198 2.198 0 0 1-.618-.604.105.105 0 0 1-.017-.059V4.301a.17.17 0 0 1 .017-.071 2.26 2.26 0 0 1 .619-.616c.016-.017.069-.017.069-.017h2.033c.024 0 .049.005.07.017.244.165.455.374.622.616a.205.205 0 0 1 .01.07v4.358ZM36 13.58a1.493 1.493 0 0 0-.857-.277H31.33v8.473h3.814c.307 0 .605-.095.856-.27.262-.226.499-.477.708-.751a1.27 1.27 0 0 0 .2-.727v-1.202a1.363 1.363 0 0 0-.2-.756 4.816 4.816 0 0 0-.537-.58c.194-.178.374-.372.537-.58.139-.227.208-.49.2-.756v-1.082a1.358 1.358 0 0 0-.2-.755 4.911 4.911 0 0 0-.708-.736Zm-3.813 4.324h2.96a.516.516 0 0 1 .217.039c.268.172.49.406.652.68.03.069.043.143.04.217v1.153a.514.514 0 0 1-.039.215 2.027 2.027 0 0 1-.655.681.432.432 0 0 1-.229.054h-2.946v-3.04Zm3.177-.866a.519.519 0 0 1-.217.054h-2.96v-2.97h2.947c.08-.003.16.015.23.054.267.178.49.416.652.694.03.068.043.142.04.216v1.04a.595.595 0 0 1-.039.23 2.05 2.05 0 0 1-.657.682h.004ZM43.725 19.922a.38.38 0 0 1-.054.174c-.217.35-.508.65-.852.88a.336.336 0 0 1-.172.038h-1.742a.343.343 0 0 1-.175-.04 2.964 2.964 0 0 1-.877-.878.38.38 0 0 1-.054-.174v-6.626h-.853v6.66c-.005.241.06.48.186.685.273.368.596.695.961.971.224.138.479.216.741.228h1.884c.258-.012.508-.09.727-.228.365-.277.69-.603.963-.97a1.25 1.25 0 0 0 .17-.686v-6.66h-.853v6.626ZM51.73 17.654l-3.837-1.068a.643.643 0 0 1-.416-.613v-.887a.369.369 0 0 1 .054-.172c.223-.332.518-.61.864-.81a.342.342 0 0 1 .172-.04h1.983c.06-.002.12.012.173.041a2.706 2.706 0 0 1 .948 1.06l.007.015.853-.25-.008-.02c-.09-.196-.2-.381-.326-.555-.164-.22-.555-.694-.877-.89a1.51 1.51 0 0 0-.727-.228h-2.095c-.258.012-.508.09-.727.227-.37.282-.696.616-.971.99-.121.211-.18.452-.172.694v.872c0 .642.365 1.193.886 1.34l3.852 1.054c.269.071.435.389.435.643v.899a.379.379 0 0 1-.038.173 2.776 2.776 0 0 1-.88.832.293.293 0 0 1-.158.04h-2.246a.394.394 0 0 1-.19-.041 2.85 2.85 0 0 1-.848-.878.576.576 0 0 1-.096-.163v-.015l-.84.235.01.02c.085.195.19.381.311.556.163.22.555.693.877.89.224.138.479.216.74.228h2.334c.258-.012.509-.09.727-.228.369-.276.696-.603.972-.971.12-.21.18-.45.172-.694v-.956c-.003-.632-.38-1.178-.918-1.33ZM55.456 13.296H54.6v8.474h.855v-8.474ZM62.319 20.501l-3.604-7.195-.006-.01h-1.114v8.473h.825v-7.137l3.634 7.127.005.01h1.085v-8.473h-.825v7.205ZM65.296 21.769h4.874v-.825h-4.02v-2.999h3.81v-.825h-3.81v-2.998h4.02v-.826h-4.874v8.473ZM77.153 17.654l-3.838-1.068a.644.644 0 0 1-.416-.614v-.886a.369.369 0 0 1 .054-.172c.223-.333.519-.61.866-.81a.335.335 0 0 1 .172-.04h1.981a.339.339 0 0 1 .175.041c.347.224.638.524.852.878a.99.99 0 0 1 .095.18l.007.014.833-.244h.02l-.008-.02c-.09-.196-.2-.381-.326-.556-.162-.22-.555-.693-.877-.89a1.506 1.506 0 0 0-.727-.228h-2.095c-.257.013-.508.09-.727.228a4.934 4.934 0 0 0-.97.99c-.121.211-.18.451-.171.694v.871c0 .643.363 1.193.885 1.34l3.852 1.055c.268.07.435.388.435.642v.9a.379.379 0 0 1-.04.173 2.766 2.766 0 0 1-.879.832.29.29 0 0 1-.158.039h-2.247a.4.4 0 0 1-.189-.04 2.865 2.865 0 0 1-.85-.879.6.6 0 0 1-.093-.162v-.015l-.84.234.01.021c.086.195.19.38.31.555.164.22.556.694.877.89.224.138.48.216.741.228h2.335a1.51 1.51 0 0 0 .727-.227c.368-.276.695-.603.971-.971.122-.21.181-.451.172-.694v-.956c-.005-.635-.38-1.18-.92-1.333ZM85.123 17.654l-3.839-1.068a.642.642 0 0 1-.416-.614v-.886a.368.368 0 0 1 .053-.172c.223-.333.519-.61.865-.81a.34.34 0 0 1 .172-.04h1.977c.06-.002.12.012.174.041.347.224.64.524.853.878.038.056.07.116.096.18v.014l.832-.244h.021l-.008-.02c-.09-.196-.2-.382-.326-.556-.163-.22-.555-.693-.877-.89a1.506 1.506 0 0 0-.727-.228h-2.095a1.51 1.51 0 0 0-.717.228 4.922 4.922 0 0 0-.971.99c-.122.21-.181.451-.172.694v.871c0 .643.363 1.193.885 1.34l3.852 1.055c.27.07.436.388.436.642v.9a.363.363 0 0 1-.04.173 2.766 2.766 0 0 1-.88.832.29.29 0 0 1-.158.039H81.87a.39.39 0 0 1-.188-.04 2.854 2.854 0 0 1-.85-.879.655.655 0 0 1-.094-.162v-.015l-.833.234.008.021c.087.194.19.38.311.555.164.22.555.694.877.89.224.138.48.216.742.228h2.334c.258-.012.508-.09.727-.227.368-.276.695-.603.971-.971.12-.211.18-.451.17-.694v-.956c-.01-.635-.384-1.18-.922-1.333Z" fill="currentColor"/></svg>
